X:17858
T:Trumlond House
R:Jig
O:Scotland
M:12/8
A:Orkney
K:D
AG |\
FGA AGF GAB BAG | FAd dcd eEE E2G | \
FGA AFD GAB BGE | FAd cBc dDD D2G |
FGA AFD GAB EFG | Add fed ecA G2E | \
FED GFE AGF BAG | Add ede fdd d2e ||
fdB Bde fdB Bcd | cBc ABc ecA Ace | \
fdB Bcd fef aaf | ede fgf edc B2g |
fef def efe cde | dcd Bcd AGF FED | \
FGA AGF GAB BAG | Adf ede fdd d||
